project/porshe/images/svg/icon-work.svg

<svg width="34" height="29" viewBox="0 0 34 29" fill="none" xmlns="http://www.w3.org/2000/svg">
<path fill-rule="evenodd" clip-rule="evenodd" d="M18.9232 11.92C19.0599 12.0634 19.0723 12.0836 19.1174 12.157C19.1387 12.1916 19.1672 12.238 19.2193 12.3146V11.9899H22.8546V14.8887C22.8546 14.8887 24.1697 15.5394 24.1697 16.2883V0.0672644L12.9551 0L12.9539 11.0171C13.3343 11.0244 13.7142 11.0474 14.0923 11.0704C14.2546 11.0802 14.4169 11.0901 14.5785 11.0986C14.5785 11.0986 18.4014 11.3741 18.9232 11.9213V11.92ZM19.2205 2.98828H22.8559V6.151H19.2205V2.98828ZM22.8559 7.52979H19.2205V10.6925H22.8559V7.52979ZM14.2923 2.98828H17.9055V6.151H14.2923V2.98828ZM17.9056 7.52979H14.2702V10.6925H17.9056V7.52979Z" fill="white"/>
<path fill-rule="evenodd" clip-rule="evenodd" d="M26.0151 6.21924V26.5292H33.1428V6.21924H26.0151ZM31.5896 24.9024H27.5669V22.001H31.5896V24.9024ZM27.5842 20.3736H31.5909L31.5736 17.4722H27.5669L27.5842 20.3736ZM31.5896 15.845H27.5669V12.9436H31.5896V15.845ZM27.5669 11.329H31.5896V8.41333H27.5669V11.329Z" fill="white"/>
<path fill-rule="evenodd" clip-rule="evenodd" d="M24.4238 23.6357C24.4127 23.5011 24.4127 23.3796 24.4127 23.245L24.4104 23.1429C24.3999 22.6993 24.3893 22.246 24.3893 21.8027C24.3893 21.6682 24.3893 21.5337 24.3782 21.4121C24.3671 21.0576 24.3548 20.6916 24.3313 20.3242C24.3227 20.169 24.3091 20.0163 24.2943 19.8637C24.2684 19.6076 24.2351 19.3553 24.1919 19.1018C24.134 18.8082 24.0057 18.5637 23.7959 18.3684L23.7614 18.3321C23.4814 18.0631 23.2026 17.8186 22.8868 17.6116C22.8785 17.6075 22.8718 17.6049 22.866 17.6026C22.8554 17.5984 22.8479 17.5954 22.8399 17.5871C22.833 17.5798 22.8304 17.5771 22.8294 17.5738C22.8287 17.5717 22.8288 17.5694 22.8288 17.5657L22.8288 17.5625C22.8998 17.5554 22.9617 17.5479 23.0229 17.5405C23.0626 17.5356 23.102 17.5309 23.1434 17.5263C23.2717 17.5146 23.4 17.4771 23.5159 17.4163C23.6097 17.3672 23.6788 17.2947 23.7145 17.208L23.7195 17.192C23.7292 17.1606 23.7396 17.1271 23.7491 17.0852C23.7602 17.0114 23.7491 16.939 23.7256 16.8653C23.6442 16.56 23.4925 16.3271 23.2593 16.1693C23.1656 16.1085 23.0731 16.0594 22.9682 16.0102C22.7585 15.9365 22.5365 15.8873 22.3267 15.8641C22.2688 15.8641 22.2219 15.8641 22.1639 15.8757C22.0356 15.9003 21.9308 15.9973 21.8728 16.1564C21.8444 16.2146 21.8259 16.2754 21.8123 16.3388C21.7975 16.4073 21.7914 16.4772 21.7914 16.5483C21.784 16.6539 21.7864 16.7538 21.7889 16.8555C21.7901 16.9071 21.7914 16.9592 21.7914 17.0127C21.7914 17.0221 21.793 17.0296 21.7944 17.036C21.7966 17.0464 21.7982 17.0539 21.7914 17.0619C21.7803 17.0981 21.7679 17.1227 21.7334 17.1227C21.5459 17.0935 21.3583 17.0954 21.1708 17.0972C21.1252 17.0977 21.0796 17.0981 21.0339 17.0981C21.0318 17.0934 21.0293 17.0883 21.0264 17.0829C21.0242 17.0786 21.0218 17.074 21.0192 17.0693C21.0082 17.0487 20.9952 17.0245 20.9871 16.9998C20.881 16.7773 20.7724 16.5574 20.6626 16.3388C20.4813 15.9779 20.295 15.6235 20.1001 15.2768C20.089 15.2561 20.0779 15.2354 20.0668 15.216C20.0515 15.189 20.0383 15.1643 20.0253 15.1398C20.009 15.1092 19.9929 15.079 19.9731 15.0452C19.8041 14.7503 19.6239 14.4657 19.4352 14.1876C19.2724 13.9483 19.1021 13.7129 18.9245 13.4801C18.7025 13.1994 18.4237 13.0273 18.0968 12.9549L17.8834 12.9083C17.7329 12.876 17.5824 12.8449 17.4331 12.8203C17.2719 12.7963 17.1126 12.7721 16.953 12.7479C16.7085 12.7107 16.4631 12.6734 16.2094 12.6367C15.9083 12.6032 15.6063 12.5796 15.3139 12.5569L15.2422 12.5513C15.1712 12.5468 15.1001 12.5422 15.0284 12.5375C14.912 12.53 14.7939 12.5223 14.6711 12.5151L14.5934 12.5112C14.0555 12.4827 13.5177 12.4698 12.9737 12.4594C12.9288 12.4588 12.8836 12.4578 12.8384 12.4569C12.793 12.4559 12.7473 12.4549 12.7023 12.4543C12.6906 12.4543 12.6761 12.4514 12.6616 12.4484C12.6471 12.4455 12.6326 12.4426 12.6209 12.4426H11.5365C11.5259 12.4426 11.5154 12.445 11.5037 12.4476C11.4897 12.4508 11.4741 12.4543 11.4551 12.4543C11.2603 12.4598 11.0629 12.4627 10.8642 12.4657C10.6465 12.4689 10.4272 12.4721 10.208 12.4788C9.8143 12.4904 9.42064 12.5148 9.02577 12.5392L9.01877 12.5396C8.85906 12.5526 8.70276 12.5655 8.54646 12.5784L8.54453 12.5786C8.4045 12.5902 8.26446 12.6018 8.12195 12.6134C7.70253 12.6496 7.28311 12.7117 6.8748 12.7841C6.7704 12.8032 6.66635 12.8258 6.56229 12.8484C6.46839 12.8688 6.37439 12.8892 6.28021 12.907C6.11737 12.9316 5.95454 12.9678 5.80281 13.0286C5.58199 13.114 5.39449 13.2369 5.24399 13.4193C4.96396 13.7491 4.71971 14.1035 4.48657 14.4696C3.98573 15.2639 3.55397 16.1072 3.15799 16.9752L3.15155 16.9901C3.14187 17.013 3.13016 17.0406 3.11111 17.0606L3.09667 17.0591C2.98541 17.0479 2.87264 17.0365 2.74967 17.0489C2.63248 17.0606 2.51652 17.0735 2.38823 17.0981C2.34135 17.0735 2.33025 17.0127 2.33025 16.939C2.35369 16.7553 2.34135 16.56 2.31915 16.3763C2.29571 16.278 2.27227 16.1926 2.2254 16.0956C2.14398 15.9494 2.02679 15.8628 1.85285 15.8511C1.51485 15.8395 1.20028 15.9249 0.909156 16.1072C0.629131 16.278 0.455195 16.5354 0.372544 16.8653C0.361442 16.8898 0.361442 16.9261 0.361442 16.9752C0.35034 17.1835 0.419421 17.3051 0.59459 17.3904C0.827739 17.5004 1.07199 17.5366 1.32858 17.5495H1.51485C1.4959 17.5893 1.47695 17.5969 1.458 17.6045C1.45351 17.6063 1.44902 17.6081 1.44453 17.6103L1.37895 17.6537C1.1819 17.7836 0.993139 17.9082 0.815403 18.0631C0.652569 18.2093 0.489735 18.3567 0.361442 18.5275C0.303463 18.6128 0.256587 18.6866 0.233148 18.7836C0.221169 18.8558 0.207706 18.9279 0.194252 18.9999C0.168916 19.1355 0.143601 19.2711 0.128293 19.4071C0.111942 19.5694 0.0980782 19.7313 0.0842162 19.8933C0.0687976 20.0735 0.053378 20.2537 0.0345405 20.4342L0.0316666 20.4751C0.0214138 20.6206 0.0111023 20.767 0.0111023 20.9231C0.0111023 20.9333 0.00919776 20.9455 0.00696631 20.9597C0.00381026 20.9799 0 21.0043 0 21.0331V22.7198C0 22.7461 0.00316276 22.7686 0.00611213 22.7897C0.00868865 22.808 0.0111023 22.8252 0.0111023 22.8427C0.0171032 23.1797 0.0234645 23.513 0.0297966 23.8447C0.0351788 24.1266 0.0405421 24.4075 0.0456428 24.6886C0.0456428 24.8658 0.0428673 25.0398 0.0400917 25.2138C0.0373161 25.3878 0.0345405 25.5618 0.0345405 25.739C0.0456428 26.2525 0.0579787 26.7661 0.0814169 27.2783C0.0925192 27.6211 0.128293 27.9626 0.198608 28.2924C0.217495 28.4102 0.25881 28.5129 0.298671 28.6119C0.308277 28.6358 0.317798 28.6595 0.326901 28.6831C0.408318 28.8538 0.547714 28.9638 0.735219 28.9884C0.739746 28.9884 0.744477 28.9903 0.750081 28.9926C0.758225 28.9959 0.768213 29 0.782096 29H3.26408C3.45035 28.9146 3.55521 28.7439 3.62552 28.5602C3.6724 28.414 3.70694 28.2795 3.71927 28.132C3.71927 28.1075 3.71927 28.0829 3.73038 28.0467H3.95119C4.03261 28.035 4.11402 28.035 4.18434 28.035C4.27809 28.0234 4.34717 27.9742 4.39405 27.9005C4.41748 27.8513 4.45203 27.8022 4.4878 27.7543C4.52787 27.7543 4.56636 27.753 4.60385 27.7516C4.676 27.7491 4.74447 27.7467 4.81347 27.7543L4.85251 27.7573C4.99131 27.7681 5.1309 27.7789 5.27976 27.7789C5.40822 27.7789 5.53667 27.8014 5.65967 27.823C5.69259 27.8288 5.72513 27.8345 5.75716 27.8397C5.88252 27.8529 6.00788 27.8695 6.13132 27.8858C6.23744 27.8999 6.34221 27.9137 6.44427 27.9251C6.78222 27.9613 7.12017 27.9859 7.45812 28.0104C7.55216 28.0159 7.6461 28.0189 7.73985 28.0218C7.84408 28.025 7.94833 28.0282 8.05287 28.035C8.77173 28.0533 9.49739 28.0508 10.2243 28.0484L10.226 28.0484C10.4765 28.0475 10.7271 28.0467 10.9777 28.0467C11.6997 28.0389 12.4212 28.0415 13.1461 28.0441C13.5099 28.0454 13.8745 28.0467 14.2406 28.0467C15.009 28.0467 15.79 28.0467 16.5597 28.035C16.9452 28.035 17.3201 28.0117 17.705 27.9878L17.7366 27.9859C18.2029 27.9613 18.6457 27.9121 19.0997 27.8151C19.3409 27.7627 19.5812 27.7641 19.8222 27.7655C19.861 27.7657 19.8997 27.766 19.9385 27.766C19.9619 27.766 19.9854 27.7776 19.9965 27.8022C19.9998 27.8096 20.0033 27.8158 20.0065 27.8216C20.0139 27.835 20.0199 27.8458 20.0199 27.863C20.0779 27.9859 20.1717 28.0467 20.2876 28.0583C20.3276 28.064 20.3677 28.0669 20.4092 28.07C20.4521 28.0731 20.4966 28.0763 20.5442 28.0829C20.557 28.123 20.5661 28.1667 20.5755 28.2118C20.5834 28.2496 20.5915 28.2885 20.6022 28.3274C20.6106 28.3541 20.6183 28.3809 20.6261 28.4076C20.6502 28.4908 20.6743 28.574 20.7181 28.6572C20.7996 28.8409 20.9402 28.9509 21.1265 28.9871C21.1311 28.9871 21.136 28.9891 21.141 28.9915C21.1419 28.992 21.1428 28.9924 21.1437 28.9929C21.1496 28.9958 21.1554 28.9987 21.161 28.9987H23.4567C23.479 28.9932 23.5039 28.9903 23.5288 28.9874C23.5563 28.9841 23.5839 28.9809 23.6084 28.9741C23.8182 28.925 23.9699 28.8034 24.0747 28.5835C24.1685 28.3752 24.2265 28.1683 24.261 27.9484C24.319 27.6431 24.3548 27.3378 24.3782 27.0312C24.3838 26.909 24.3896 26.7838 24.3955 26.6587C24.4013 26.5335 24.4072 26.4084 24.4127 26.2862C24.4238 26.237 24.4238 26.2008 24.4238 26.1633V23.6357ZM16.5819 15.0947C16.5351 15.0701 16.5116 15.0455 16.5005 15.0339C16.4191 14.9485 16.3142 14.911 16.2094 14.8877C15.9059 14.8269 15.5914 14.8023 15.2891 14.8515C15.2218 14.8611 15.1621 14.8796 15.0974 14.8996L15.056 14.9123C14.9042 14.9731 14.7883 15.096 14.7303 15.2421C14.7186 15.2725 14.7069 15.3 14.6952 15.3275C14.6834 15.355 14.6717 15.3825 14.66 15.4129C14.6372 15.4725 14.6174 15.5292 14.5976 15.5855C14.5767 15.6452 14.5558 15.7048 14.5317 15.7673C14.4503 16.0001 14.38 16.2433 14.3097 16.4878C14.3097 16.4936 14.3069 16.4998 14.3041 16.5059C14.3013 16.5121 14.2986 16.5182 14.2986 16.524C14.2406 16.524 14.1814 16.524 14.1234 16.5357C14.0999 16.5357 14.0654 16.5473 14.0531 16.5602C14.0296 16.5848 13.9951 16.5965 13.9593 16.5965C13.7027 16.5848 13.4585 16.5848 13.2019 16.5848H11.8733C11.6926 16.5848 11.515 16.5877 11.3373 16.5906C11.1597 16.5936 10.982 16.5965 10.8013 16.5965C10.7824 16.5965 10.7631 16.6 10.7456 16.6031C10.7313 16.6057 10.7182 16.6081 10.7076 16.6081C10.6138 16.6198 10.509 16.6327 10.4164 16.6081C10.3461 16.5835 10.2647 16.5719 10.1956 16.6198C10.1845 16.6314 10.1722 16.6314 10.1611 16.6314C10.0773 16.6055 9.98846 16.6107 9.90179 16.6157C9.86726 16.6178 9.83303 16.6198 9.79965 16.6198H9.71823C9.68925 16.5221 9.65719 16.4274 9.62512 16.3327C9.59306 16.2379 9.56094 16.1431 9.53196 16.0454C9.49681 15.9355 9.46473 15.8255 9.43266 15.7156C9.40059 15.6056 9.36851 15.4957 9.33335 15.3857C9.32589 15.3449 9.30729 15.3034 9.28877 15.2622C9.27974 15.2421 9.27072 15.2219 9.26304 15.202C9.18162 15.0067 9.04223 14.9084 8.85472 14.8592C8.52905 14.7739 8.20215 14.7364 7.87525 14.8101C7.67664 14.8463 7.50271 14.9446 7.39785 15.1399C7.39785 15.1456 7.39522 15.1485 7.39252 15.1515C7.38967 15.1546 7.38675 15.1579 7.38675 15.1645H7.37565C7.28189 15.0183 7.36454 14.8347 7.4694 14.7364C7.56315 14.651 7.67911 14.5902 7.8074 14.5772C7.89922 14.5659 7.99341 14.552 8.08888 14.538C8.19988 14.5217 8.3127 14.5051 8.42543 14.4919C8.55797 14.4802 8.69023 14.466 8.82378 14.4516C8.97236 14.4356 9.12267 14.4194 9.27661 14.4065L10.768 14.3328C10.8149 14.3328 10.8383 14.3328 10.8729 14.369C11.0012 14.5152 11.1763 14.5889 11.3503 14.6135C11.4274 14.626 11.5075 14.6321 11.5889 14.6384C11.6676 14.6444 11.7476 14.6505 11.8277 14.6626C11.8394 14.6626 11.8539 14.6655 11.8684 14.6684C11.8829 14.6713 11.8974 14.6743 11.9091 14.6743C12.2126 14.6859 12.5271 14.6626 12.8293 14.6135C13.0045 14.5889 13.155 14.5035 13.2956 14.3936C13.3302 14.369 13.366 14.3573 13.4128 14.3573C13.5009 14.3628 13.5865 14.3657 13.6719 14.3686C13.7672 14.3719 13.8624 14.3751 13.9605 14.3819C14.0771 14.3942 14.1937 14.4033 14.3103 14.4123C14.4268 14.4214 14.5434 14.4304 14.66 14.4427C14.7766 14.455 14.8959 14.4673 15.0152 14.4796C15.1346 14.4919 15.254 14.5042 15.3705 14.5164C15.6271 14.541 15.8714 14.5772 16.1169 14.6264C16.2452 14.638 16.3611 14.6872 16.466 14.7726C16.5363 14.8334 16.5708 14.9187 16.5943 15.017C16.5988 15.0123 16.5978 15.0155 16.595 15.0244C16.5909 15.0372 16.5832 15.0617 16.5832 15.0908L16.5819 15.0947Z" fill="white"/>
</svg>

<svg width="34" height="29" fill="none" xmlns="http://www.w3.org/2000/svg"><path fill-rule="evenodd" clip-rule="evenodd" d="M18.923 11.92c.137.143.15.164.194.237.022.035.05.081.102.158v-.325h3.636v2.899s1.315.65 1.315 1.4V.066L12.955 0l-.001 11.017c.38.007.76.03 1.138.053l.486.029s3.823.275 4.345.822v-.001zm.298-8.932h3.635v3.163H19.22V2.988zm3.635 4.542H19.22v3.163h3.636V7.53zm-8.564-4.542h3.614v3.163h-3.614V2.988zm3.614 4.542H14.27v3.163h3.636V7.53zm8.109-1.31v20.31h7.128V6.22h-7.128zm5.575 18.682h-4.023v-2.901h4.023v2.901zm-4.006-4.528h4.007l-.017-2.902h-4.007l.017 2.902zm4.006-4.529h-4.023v-2.901h4.023v2.901zm-4.023-4.516h4.023V8.413h-4.023v2.916z" fill="#fff"/><path fill-rule="evenodd" clip-rule="evenodd" d="M24.424 23.636c-.011-.135-.011-.256-.011-.391l-.003-.102c-.01-.444-.02-.897-.02-1.34 0-.135 0-.27-.012-.39-.01-.355-.023-.721-.047-1.089a11.138 11.138 0 00-.14-1.222 1.317 1.317 0 00-.395-.734l-.035-.036a6.074 6.074 0 00-.874-.72l-.021-.01a.064.064 0 01-.026-.015c-.007-.007-.01-.01-.01-.013l-.001-.008v-.003l.194-.022.12-.015a.986.986 0 00.373-.11.418.418 0 00.199-.208l.005-.016c.01-.031.02-.065.03-.107a.48.48 0 00-.024-.22c-.082-.305-.233-.538-.467-.696a2.362 2.362 0 00-.29-.159 2.938 2.938 0 00-.642-.146c-.058 0-.105 0-.163.012-.128.024-.233.121-.291.28a.788.788 0 00-.06.183.989.989 0 00-.022.21 3.19 3.19 0 00-.002.306l.002.158c0 .01.002.017.003.023.003.01.004.018-.003.026-.01.036-.023.06-.058.06a3.412 3.412 0 00-.562-.025l-.137.001a.235.235 0 00-.015-.029c-.01-.02-.024-.044-.032-.07a35.862 35.862 0 00-.324-.66 26.695 26.695 0 00-.563-1.062l-.033-.061a3.043 3.043 0 01-.042-.076 13.34 13.34 0 00-.59-.952 16.06 16.06 0 00-.51-.708 1.428 1.428 0 00-.828-.525l-.214-.047a9.578 9.578 0 00-.45-.088l-.48-.072c-.244-.037-.49-.075-.744-.111a26.983 26.983 0 00-.895-.08l-.072-.006-.214-.014-.357-.022-.078-.004a47.875 47.875 0 00-1.62-.052l-.135-.002a15.745 15.745 0 00-.136-.003.22.22 0 01-.04-.006.227.227 0 00-.041-.005h-1.085c-.01 0-.02.002-.032.005a.208.208 0 01-.049.006 37.93 37.93 0 01-.59.012c-.219.003-.438.006-.657.013-.394.011-.787.036-1.182.06h-.007l-.473.04h-.001l-.423.034c-.42.037-.839.099-1.247.171-.105.02-.209.042-.313.064-.094.02-.188.041-.282.059-.163.025-.325.06-.477.122a1.311 1.311 0 00-.559.39c-.28.33-.524.684-.757 1.05a21.148 21.148 0 00-1.329 2.506l-.006.015a.232.232 0 01-.04.07h-.015a1.655 1.655 0 00-.347-.011 3.93 3.93 0 00-.362.05c-.047-.026-.058-.086-.058-.16a2.322 2.322 0 00-.01-.563 1.294 1.294 0 00-.095-.28.436.436 0 00-.372-.245 1.636 1.636 0 00-.944.256 1.18 1.18 0 00-.536.758c-.012.025-.012.061-.012.11-.01.208.058.33.234.415.233.11.477.147.734.16h.186c-.02.04-.038.047-.057.055l-.013.005-.066.044c-.197.13-.386.254-.564.41a3.363 3.363 0 00-.454.463.764.764 0 00-.128.257L.194 19c-.025.136-.05.271-.066.407-.016.162-.03.324-.044.486-.015.18-.03.36-.05.541l-.002.041a6.25 6.25 0 00-.02.448c0 .01-.003.023-.005.037a.456.456 0 00-.007.073v1.687c0 .026.003.049.006.07a.38.38 0 01.005.053l.019 1.002.016.844c0 .177-.003.35-.006.525a30.34 30.34 0 00-.005.525c.01.514.023 1.027.046 1.54.012.342.047.684.118 1.013.018.118.06.22.1.32l.028.071c.081.17.22.28.408.305a.03.03 0 01.015.005c.008.003.018.007.032.007h2.482c.186-.085.291-.256.362-.44.046-.146.08-.28.093-.428 0-.024 0-.05.011-.085h.221c.082-.012.163-.012.233-.012a.281.281 0 00.21-.134.908.908 0 01.094-.147l.116-.002a1.47 1.47 0 01.21.002l.039.003c.138.011.278.022.427.022.128 0 .257.022.38.044l.097.017c.126.013.25.03.374.046.106.014.211.028.313.04.338.035.676.06 1.014.084.094.006.188.009.282.012.104.003.208.006.313.013a74.65 74.65 0 002.171.013h.002l.752-.001a142.38 142.38 0 012.168-.003c.364.001.728.003 1.095.003.768 0 1.549 0 2.319-.012.385 0 .76-.023 1.145-.047l.032-.002a8.755 8.755 0 001.363-.17c.24-.053.481-.052.722-.05h.117c.023 0 .046.012.058.036l.01.02c.007.013.013.024.013.041a.318.318 0 00.268.195c.04.006.08.009.121.012.043.003.088.006.135.013.013.04.022.084.032.129.007.038.015.076.026.115l.024.08c.024.084.048.167.092.25a.542.542 0 00.423.334l.003.002c.006.003.011.006.017.006h2.296c.022-.006.047-.009.072-.012.027-.003.055-.006.08-.013.21-.049.36-.17.466-.39.094-.209.152-.416.186-.636a8.27 8.27 0 00.117-.917l.017-.372.018-.373a.558.558 0 00.01-.123v-2.527zm-7.842-8.541c-.047-.025-.07-.05-.082-.061a.548.548 0 00-.29-.146 2.594 2.594 0 00-.92-.037c-.068.01-.128.029-.193.049l-.041.012a.59.59 0 00-.326.33c-.011.03-.023.058-.035.085a2.374 2.374 0 00-.035.086c-.023.06-.043.116-.062.172-.021.06-.042.12-.066.182a13.484 13.484 0 00-.233.757c-.058 0-.118 0-.176.012a.119.119 0 00-.07.024.128.128 0 01-.094.037c-.256-.012-.5-.012-.757-.012h-1.329c-.18 0-.358.003-.536.006-.177.003-.355.005-.536.005-.019 0-.038.004-.055.007a.209.209 0 01-.038.005.785.785 0 01-.292 0c-.07-.024-.151-.036-.22.012-.011.011-.024.011-.035.011-.084-.026-.173-.02-.26-.015a1.698 1.698 0 01-.101.004h-.082a7.857 7.857 0 00-.093-.287c-.032-.095-.064-.19-.093-.288-.035-.11-.067-.22-.1-.33a8.263 8.263 0 00-.099-.33.561.561 0 00-.044-.123 1.229 1.229 0 01-.026-.06.56.56 0 00-.408-.343c-.326-.085-.653-.123-.98-.049a.644.644 0 00-.477.33c0 .006-.003.008-.005.011-.003.004-.006.007-.006.014h-.011c-.094-.147-.011-.33.093-.429a.595.595 0 01.338-.159c.092-.011.186-.025.282-.039.11-.016.224-.033.336-.046.133-.012.265-.026.399-.04.148-.016.299-.033.453-.046l1.491-.073c.047 0 .07 0 .105.036.128.146.303.22.477.245.077.012.158.018.239.024a3.24 3.24 0 01.28.03c.014.003.028.006.04.006.304.012.618-.011.92-.06a.981.981 0 00.467-.22.19.19 0 01.117-.037c.088.006.173.009.259.012.095.003.19.006.288.013.117.012.234.021.35.03.117.01.233.018.35.03a152.365 152.365 0 00.71.074c.257.025.501.061.747.11a.634.634 0 01.349.147c.07.06.105.146.128.244.005-.005.004-.002.001.007a.215.215 0 00-.012.067l-.001.004z" fill="#fff"/></svg>
